tipitek/img/User.svg

<svg width="32" height="32" viewBox="0 0 32 32" fill="none" xmlns="http://www.w3.org/2000/svg">
<path fill-rule="evenodd" clip-rule="evenodd" d="M15.8514 19.2187L16.002 19.2188L16.3387 19.2199C18.9129 19.2368 24.7954 19.4969 24.7954 23.484C24.7954 27.445 19.1179 27.7034 16.3789 27.7202L15.3641 27.7202C12.7898 27.7033 6.90607 27.4435 6.90607 23.4614C6.90607 19.4954 12.7898 19.2368 15.3641 19.2199L15.7008 19.2188C15.7531 19.2187 15.8033 19.2187 15.8514 19.2187ZM15.8514 21.2187C12.6834 21.2187 8.90607 21.608 8.90607 23.4614C8.90607 25.2728 12.4579 25.6963 15.5618 25.7203L15.8514 25.7214C19.0194 25.7214 22.7954 25.3334 22.7954 23.484C22.7954 21.612 19.0194 21.2187 15.8514 21.2187ZM26.4562 18.6776C29.6869 19.1616 30.3655 20.679 30.3655 21.867C30.3655 22.5923 30.0802 23.9163 28.1735 24.643C28.0562 24.687 27.9362 24.7083 27.8175 24.7083C27.4149 24.7083 27.0349 24.463 26.8829 24.0643C26.6855 23.5483 26.9455 22.9696 27.4615 22.7736C28.3655 22.4296 28.3655 22.0496 28.3655 21.867C28.3655 21.283 27.6229 20.875 26.1589 20.6563C25.6135 20.5736 25.2362 20.0656 25.3175 19.5176C25.3989 18.971 25.9055 18.607 26.4562 18.6776ZM6.38394 19.5176C6.46527 20.0656 6.08794 20.5736 5.5426 20.6563C4.0786 20.875 3.33594 21.283 3.33594 21.867C3.33594 22.0496 3.33594 22.4283 4.24127 22.7736C4.75727 22.9696 5.01727 23.5483 4.81994 24.0643C4.66794 24.463 4.28794 24.7083 3.88527 24.7083C3.7666 24.7083 3.6466 24.687 3.52927 24.643C1.62127 23.915 1.33594 22.591 1.33594 21.867C1.33594 20.6803 2.0146 19.1616 5.2466 18.6776C5.79727 18.6083 6.30127 18.971 6.38394 19.5176ZM15.8514 5.33337C19.2114 5.33337 21.9434 8.06671 21.9434 11.4254C21.9434 14.784 19.2114 17.5174 15.8514 17.5174H15.8154C14.1887 17.512 12.6647 16.8747 11.5234 15.7227C10.3794 14.572 9.75407 13.044 9.76068 11.4214C9.76068 8.06671 12.4927 5.33337 15.8514 5.33337ZM15.8514 7.33337C13.5954 7.33337 11.7607 9.16937 11.7607 11.4254C11.7567 12.5187 12.1754 13.5414 12.9421 14.3134C13.7087 15.0854 14.7301 15.5134 15.8181 15.5174L15.8514 16.5174V15.5174C18.1074 15.5174 19.9434 13.6827 19.9434 11.4254C19.9434 9.16937 18.1074 7.33337 15.8514 7.33337ZM24.1034 6.63937C26.4474 7.02471 28.1501 9.03004 28.1501 11.4074C28.1447 13.8007 26.3567 15.854 23.9901 16.186C23.9434 16.1927 23.8967 16.1954 23.8514 16.1954C23.3607 16.1954 22.9327 15.834 22.8621 15.334C22.7861 14.786 23.1661 14.2807 23.7141 14.2047C25.1007 14.01 26.1474 12.8074 26.1501 11.4047C26.1501 10.014 25.1527 8.83804 23.7781 8.61271C23.2341 8.52337 22.8647 8.00871 22.9541 7.46337C23.0447 6.91804 23.5554 6.55271 24.1034 6.63937ZM8.74874 7.46337C8.83807 8.00871 8.46874 8.52337 7.92474 8.61271C6.55007 8.83804 5.55274 10.014 5.55274 11.4074C5.5554 12.8074 6.60207 14.0114 7.9874 14.2047C8.5354 14.2807 8.9154 14.786 8.8394 15.334C8.76874 15.834 8.34074 16.1954 7.85007 16.1954C7.80474 16.1954 7.75807 16.1927 7.7114 16.186C5.34474 15.854 3.55807 13.8007 3.55274 11.41C3.55274 9.03004 5.2554 7.02471 7.5994 6.63937C8.16074 6.55137 8.65807 6.92071 8.74874 7.46337Z" fill="#30CBFF"/>
</svg>

<svg width="32" height="32" fill="none" xmlns="http://www.w3.org/2000/svg"><path fill-rule="evenodd" clip-rule="evenodd" d="M15.851 19.219h.488c2.574.018 8.456.278 8.456 4.265 0 3.961-5.677 4.22-8.416 4.236h-1.015c-2.574-.017-8.458-.276-8.458-4.259 0-3.966 5.884-4.224 8.458-4.241l.337-.001h.15zm0 2c-3.168 0-6.945.389-6.945 2.242 0 1.812 3.552 2.235 6.656 2.26h.29c3.167 0 6.943-.388 6.943-2.237 0-1.872-3.776-2.265-6.944-2.265zm10.605-2.541c3.23.484 3.91 2.001 3.91 3.189 0 .725-.286 2.05-2.192 2.776a1 1 0 0 1-.712-1.87c.904-.343.904-.723.904-.906 0-.584-.743-.992-2.207-1.21a1.002 1.002 0 0 1-.841-1.14c.08-.546.587-.91 1.138-.84zm-20.072.84a1.002 1.002 0 0 1-.841 1.138c-1.464.219-2.207.627-2.207 1.211 0 .183 0 .561.905.907a1 1 0 1 1-.712 1.869c-1.908-.728-2.193-2.052-2.193-2.776 0-1.187.679-2.705 3.91-3.19.551-.069 1.055.294 1.138.84zM15.85 5.333a6.099 6.099 0 0 1 6.092 6.092 6.099 6.099 0 0 1-6.092 6.092h-.036a6.027 6.027 0 0 1-4.292-1.794 6.025 6.025 0 0 1-1.762-4.302 6.098 6.098 0 0 1 6.09-6.088zm0 2a4.096 4.096 0 0 0-4.09 4.092 4.043 4.043 0 0 0 1.181 2.888 4.048 4.048 0 0 0 2.876 1.204l.033 1v-1a4.096 4.096 0 0 0 4.092-4.092 4.097 4.097 0 0 0-4.092-4.092zm8.252-.694a4.815 4.815 0 0 1 4.047 4.768 4.857 4.857 0 0 1-4.16 4.779 1 1 0 0 1-.276-1.981 2.844 2.844 0 0 0 2.436-2.8 2.82 2.82 0 0 0-2.372-2.792 1 1 0 0 1 .325-1.974zM8.75 7.463a1 1 0 0 1-.824 1.15 2.821 2.821 0 0 0-2.372 2.794 2.842 2.842 0 0 0 2.434 2.798 1 1 0 1 1-.276 1.981 4.855 4.855 0 0 1-4.158-4.776 4.815 4.815 0 0 1 4.046-4.77.995.995 0 0 1 1.15.823z" fill="#30CBFF"/></svg>
